X:342
%%etbk:tnset id:102,pos:4,rep:3x,ant:
%%etbk:wsite http://www.thesession.org/tunes/display/1098
%%etbk:color #ffccbf
%%etbk:pldat 2016-06-22T15:12,2016-06-18T16:35,2016-05-04T16:21,2016-05-03T16:09,2016-03-10T18:01,2016-03-09T15:16,2016-03-07T18:07,2015-11-04T16:33,2015-10-29T18:28,2015-10-27T15:20,2015-10-24T12:58,2015-10-15T19:17,2015-06-23T19:01,2015-03-12T18:22,2015-03-09T18:03,2015-03-03T18:26,2014-11-05T18:32,2014-11-04T15:21,2014-11-02T13:23,2014-08-20T18:39,2014-06-25T15:20,2014-03-06T18:49,2014-03-05T18:22,2014-03-01T16:45,2014-02-25T18:13,2014-02-18T16:40,2013-10-30T16:15,2013-10-28T18:34,2013-10-24T18:43,2013-10-16T16:25,2013-10-15T18:25,2013-10-13T15:50,2013-10-09T16:52
T: Haunted House, The
Z: Piano Box Version by Martin Fleischmann
H: Created 2013-02-19 /  Last Modified 2013-10-09
M: 6/8
L: 1/8
R: jig
K: Gmaj
|: "G"!3!G!2!G!3!G !4!AGA | !5!B!3!G!2!E !2!ED!2!E | !1!G!2!B!3!d "C"!4!eed | !4!e!5!ge !4!e!3!d!2!B |
"G"!1!G!2!G!1!G !2!AGA | !3!B!1!G!2!E {G}!2!ED!2!E | !1!G!2!B!3!d "C"!4!e!5!ge | "D"!3!d!2!B!1!A "G"!1!G3 :|
|: "G"!1!G!2!B!3!d "C"!4!eed | !4!e!5!ge !4!e!3!d!2!B | "G"!1!G!2!A!3!B !4!d2d | !4!ded !4!d!3!B!2!A |
|1 "G"!1!G!2!B!3!d "C"!4!eed | !4!e!5!ge !4!e!3!d!2!B | "G"!1!G!2!B!3!d "C"!4!e!5!ge | "D"!3!d!2!B!1!A "G"!1!G3 :|
|2 "G"!1!G!2!G!1!G !2!AGA | !3!B!1!G!2!E {G}!2!ED!2!E | !1!G!2!B!3!d "C"!4!e!5!ge | "D"!3!d!2!B!1!A "G"!1!G3 ||


